icons/image-minimal.svg

<svg xmlns="http://www.w3.org/2000/svg" viewBox="0 0 24 24" fill="currentColor">
  <path d="M7 3.75C5.21421 3.75 3.75 5.21421 3.75 7v6.8111c.63505-.3023 1.54427-.6683 2.79051-1.0309 2.72959-.794 7.07779-1.5719 13.70949-1.6267V7c0-1.78579-1.4642-3.25-3.25-3.25H7Zm13.25 8.9035c-6.5149.0548-10.71905.819-13.2905 1.567-1.33396.3881-2.22802.7717-2.77752 1.0493-.17959.0907-.32248.1702-.43198.2349V17c0 1.7981 1.37646 3.25 3.25 3.25h10c1.7858 0 3.25-1.4642 3.25-3.25v-4.3465ZM2.25 7c0-2.61421 2.13579-4.75 4.75-4.75h10c2.6142 0 4.75 2.13579 4.75 4.75v10c0 2.6142-2.1358 4.75-4.75 4.75H7c-2.72646 0-4.75-2.1481-4.75-4.75V7Zm5.25-.25c-.41421 0-.75.33579-.75.75s.33579.75.75.75.75-.33579.75-.75-.33579-.75-.75-.75Zm-2.25.75c0-1.24264 1.00736-2.25 2.25-2.25S9.75 6.25736 9.75 7.5 8.74264 9.75 7.5 9.75 5.25 8.74264 5.25 7.5Z"/>
</svg>

<svg width="24" height="24" viewBox="0 0 24 24" fill="none" xmlns="http://www.w3.org/2000/svg">
<path fill-rule="evenodd" clip-rule="evenodd" d="M7 3.75C5.21421 3.75 3.75 5.21421 3.75 7V13.8111C4.38505 13.5088 5.29427 13.1428 6.54051 12.7802C9.2701 11.9862 13.6183 11.2083 20.25 11.1535V7C20.25 5.21421 18.7858 3.75 17 3.75H7ZM20.25 12.6535C13.7351 12.7083 9.53095 13.4725 6.9595 14.2205C5.62554 14.6086 4.73148 14.9922 4.18198 15.2698C4.00239 15.3605 3.8595 15.44 3.75 15.5047V17C3.75 18.7981 5.12646 20.25 7 20.25H17C18.7858 20.25 20.25 18.7858 20.25 17V12.6535ZM2.25 7C2.25 4.38579 4.38579 2.25 7 2.25H17C19.6142 2.25 21.75 4.38579 21.75 7V17C21.75 19.6142 19.6142 21.75 17 21.75H7C4.27354 21.75 2.25 19.6019 2.25 17V7ZM7.5 6.75C7.08579 6.75 6.75 7.08579 6.75 7.5C6.75 7.91421 7.08579 8.25 7.5 8.25C7.91421 8.25 8.25 7.91421 8.25 7.5C8.25 7.08579 7.91421 6.75 7.5 6.75ZM5.25 7.5C5.25 6.25736 6.25736 5.25 7.5 5.25C8.74264 5.25 9.75 6.25736 9.75 7.5C9.75 8.74264 8.74264 9.75 7.5 9.75C6.25736 9.75 5.25 8.74264 5.25 7.5Z" fill="black"/>
</svg>
